X: 6202
T: Caribou, The
R: reel
M: 4/4
K: Edorian
A|:BGED EFGA|B2ED (3EFE E2|DDFD DADD|BDDA D2Bc|
BGED EFGA|BGBd e2df|efed BcdB|1 AG F/E/D E2Bc:|2 AG F/E/D E4||
|:Be2d efed|Bd e/f/g fedc|Bddc dedc|BGBc dedc|
Be2d efed|Bdef g2fg|afge fdec|1 dB AG/F/ E4:|2 dB AG/F/ E2 Bc||

